X: 38
T:Highlanders' Farewell to Ireland, The
M:4/4
L:1/8
R:Strathspey
K:Am
"Am"A,3 B, A,/A,/A, A,2|"G"G>E DG|"Am"E>D E<G A>B A>G|
"Em"E<G D>B, A,/A,/A, A,2:|!
|:"Am"a3b a/a/a a2|"G"g>ag>e d/c/B/A/ G>g|"Em"e>d e<g "Am"a>ba>g|
"C"e<g "G"d>B "Am"A/A/A A2:|!
|:"Am"e>A A/A/A e>A e2|"G"d>G G/G/G B>G B<d|"Am"e>A A/A/A e>d e<a|
"G"g>ed>B "Am"A/A/A A2:|!
|:"Am"a>ba>e a>ba>e|"G" g>ag>e d/c/B/A/ G>g|"Em"e>d e<g "Am"a>ba>g|
"C"e<g "G"d>B "Am"A/A/A A2:||
